svg/color/2z.svg

<svg width="260" height="294" viewBox="0 0 260 294" fill="none" xmlns="http://www.w3.org/2000/svg">
<path d="M194.533 65.7929V33.2893L32.4254 33.2893L32.4254 260.787H81.0795V244.549H113.479V228.284L145.906 228.284V212.046H194.533V195.807H210.76V179.542H194.533V195.78V212.018H145.906V195.78L145.906 130.773L226.96 130.773V179.515L226.96 82.0311H194.533V65.7656V65.7929ZM194.56 179.569H210.76V195.807H194.56V179.569ZM129.706 228.284L113.479 228.284V244.549H48.6525L48.6525 147.038H64.8524V163.304H81.0795V179.542H97.2794V195.807H113.479V212.046L129.706 212.046V228.284ZM145.906 114.535H129.706V130.8H81.0795V114.535H129.706L64.8524 114.535L64.8524 65.7929H81.0795V49.5548L129.706 49.5548V65.7929L145.906 65.7929V114.535Z" fill="#D7D7D7"/>
<path d="M113.48 65.7932H81.0806V98.2969H113.48V65.7932Z" fill="#29F91E"/>
<path d="M129.674 65.7936H129.701V49.5554L81.0741 49.5554V65.7936H113.474V98.2972H81.0741H81.0468V65.7936H81.0741H64.8469L64.8469 114.535L129.701 114.535H129.674V65.7936Z" fill="#087903"/>
<path d="M194.53 147.037H162.103V179.541H194.53V147.037Z" fill="#7C0404"/>
<path d="M145.908 195.806H151.99H194.535V179.541H162.108V147.037H194.535V179.541H210.762V130.799H145.908V195.806Z" fill="#E80000"/>
<path d="M97.2583 212.044V195.806H81.0857H81.0584V179.541H64.8313V163.303H48.6587L48.6587 228.283H113.485V212.044H97.2583Z" fill="#0919D8"/>
<path d="M64.8568 163.303V147.037H48.657V163.303H64.8296H64.8568Z" fill="#16B5F4"/>
<path d="M113.482 195.805H97.282V212.044H113.482V195.805Z" fill="#16B5F4"/>
<path d="M113.485 212.043V228.281H129.712V212.043H113.485Z" fill="#16B5F4"/>
<path d="M97.2521 195.805H97.2793V179.539H81.0795V195.805H97.2521Z" fill="#16B5F4"/>
<path d="M81.0876 163.302H64.8605V179.54H81.0876V163.302Z" fill="#16B5F4"/>
<path d="M243.159 33.2896H226.959V49.555H243.159V33.2896Z" fill="#9E9E9E"/>
<path d="M259.382 49.5557H243.154V65.7938H259.382V49.5557Z" fill="#9E9E9E"/>
<path d="M194.53 65.7927H210.758V33.289L226.957 33.289V17.0509H210.758V0.7854L194.53 0.7854V33.289V65.7927Z" fill="#9E9E9E"/>
<path d="M113.481 228.284H48.6538V244.549H113.481V228.284Z" fill="black"/>
<path d="M259.39 65.7932L194.536 65.7932V82.0314H226.963V82.0587H243.163V130.8H259.39V65.7932Z" fill="black"/>
<path d="M243.163 277.052H145.91L145.91 293.318H259.39V292.306V277.052V195.807H243.163V277.052Z" fill="black"/>
<path d="M16.2251 17.0504L194.533 17.0504V0.784912L-0.0020752 0.784912L-0.0020752 0.812234L-0.0020752 293.29L-0.0020752 293.318H48.6248L48.6248 277.052H16.2251L16.2251 17.0504Z" fill="black"/>
<path d="M210.76 130.799V179.568V179.541L226.96 179.568V130.799H210.76Z" fill="black"/>
<path d="M145.91 195.807V212.045H194.536V195.807H151.991H145.91Z" fill="black"/>
<path d="M210.757 179.569H194.557V195.807H210.757V179.569Z" fill="black"/>
<path d="M81.0515 130.8H129.706V114.534L81.0515 114.534V130.8Z" fill="black"/>
<path d="M145.907 65.7932H129.707V114.535H145.907V65.7932Z" fill="black"/>
<path d="M210.661 212.76V244.999H162.403V261.105H226.729V212.76H210.661Z" fill="black"/>
</svg>

<svg xmlns="http://www.w3.org/2000/svg" width="260" height="294" fill="none" viewBox="0 0 260 294"><path fill="#D7D7D7" d="M194.533 65.793V33.289H32.425v227.498H81.08v-16.238h32.399v-16.265h32.427v-16.238h48.627v-16.239h16.227v-16.265h-16.227v32.476h-48.627v-81.245h81.054v48.742-97.484h-32.427V65.766zm.027 113.776h16.2v16.238h-16.2zm-64.854 48.715h-16.227v16.265H48.653v-97.511h16.2v16.266H81.08v16.238h16.2v16.265h16.199v16.239h16.227zm16.2-113.749h-16.2V130.8H81.08v-16.265h48.626-64.854V65.793H81.08V49.555h48.627v16.238h16.2z"/><path fill="#29F91E" d="M113.48 65.793h-32.4v32.504h32.4z"/><path fill="#087903" d="M129.674 65.794h.027V49.555H81.074v16.239h32.4v32.503H81.047V65.794h.027-16.227v48.741H129.7h-.027z"/><path fill="#7C0404" d="M194.53 147.037h-32.427v32.504h32.427z"/><path fill="#E80000" d="M145.908 195.806h48.627v-16.265h-32.427v-32.504h32.427v32.504h16.227v-48.742h-64.854z"/><path fill="#0919D8" d="M97.258 212.044v-16.238h-16.2v-16.265H64.831v-16.238H48.66v64.98h64.826v-16.239z"/><path fill="#16B5F4" d="M64.857 163.303v-16.266h-16.2v16.266zm48.625 32.502h-16.2v16.239h16.2zm.003 16.238v16.238h16.227v-16.238zm-16.233-16.238h.027v-16.266h-16.2v16.266z"/><path fill="#16B5F4" d="M81.088 163.302H64.86v16.238h16.227z"/><path fill="#9E9E9E" d="M243.159 33.29h-16.2v16.265h16.2zm16.223 16.266h-16.228v16.238h16.228zM194.53 65.793h16.228V33.289h16.199V17.051h-16.199V.785H194.53z"/><path fill="#000" d="M113.481 228.284H48.654v16.265h64.827zM259.39 65.793h-64.854v16.238h32.427v.028h16.2V130.8h16.227zm-16.227 211.259H145.91v16.266h113.48v-97.511h-16.227z"/><path fill="#000" d="M16.225 17.05h178.308V.785H-.002v292.533h48.627v-16.266h-32.4zM210.76 130.799v48.769-.027l16.2.027v-48.769zm-64.85 65.008v16.238h48.626v-16.238zm64.847-16.238h-16.2v16.238h16.2z"/><path fill="#000" d="M81.052 130.8h48.654v-16.266H81.052zm64.855-65.007h-16.2v48.742h16.2zm64.754 146.967v32.239h-48.258v16.106h64.326V212.76z"/></svg>
